X: 1
T: Don't Get Around Much Anymore
M: c
L: 1/8
K: C
|:ze2d cGF2"C"E"Cmaj7"[C3E3]"Dm7"[D2F2]"Ebdim"[_E_G]"C/E"[=E=G]|ze2d cGF2|
"C"E"C7"[E3G3]"B7"[_E2_G2]"Bb7"[DF]"A7"[^C=E]|zG2F EDCc-|"D7"c3a-a4|
"G7"zEF^F GC^DE|"C"C"C7"[C3E3G3]"Cdim"[C2_E2_G2]"Dm"[DF]"C"[C=E]!fine!:|
"Gm7"z8"C7"x4||"F6"d4c2Ac-|"F#dim"c4z2cd-|
"Cmaj7"d4c2GE-|"C7"E4z2c2|"F6"d4cA2c-|
"F#m7b5"c4"B7b9"z4|"Em7"zBBB"Ebdim7"B2A"D7"G!D.C.!||
